X: 2
T: Karago\'una
O: Thessaly
M: C|
L: 1/8
Q: 1/2=60
K: Ador
z2 "vocal"\
| "Am"A2A2 (Bc)^d2 | e6 ^d2 | e2e2 ^d2e2 | ^d4 (cB)A2 | "Am"A2A2 "(A7)"(Bc)^c2 | "Dm"d6 c2 |
| "E"e2e2 ^d2([ec]B) | "Am"A4 A2 :: c2 | (cB)A2 z2c2 | (cB)A2 z2c2 | "E"e2e2 ^d2e2 | "Am"(cB)A2 z2 :|
Q:1/2=88
z2"instr"\
|: "Am"agfe ^defg | agfe ^dcBA | agfe ^defg | a2ae a4 ||
| "Am"agfe ^defg | agfe ^dcBA | "(E7)"^GABc ^decB | "Am"AE"E7"F^G"Am"A2 :|
